assets/img/braze_icons/tv-03.svg

<svg fill="none" height="24" viewBox="0 0 24 24" width="24" xmlns="http://www.w3.org/2000/svg"><path d="m7.62473 2.21917c-.43126-.34501-1.06055-.27509-1.40556.15617s-.27509 1.06056.15617 1.40557l2.77387 2.21909h-2.39051c-.80497-.00001-1.46933-.00002-2.01052.04419-.5621.04593-1.07881.14449-1.56414.39179-.75265.38349-1.36457.99541-1.74806 1.74806-.2473.48533-.34586 1.00204-.39179 1.56414-.044212.54122-.044202 1.20552-.04419 2.01052v4.4826c-.000012.805-.000022 1.4693.04419 2.0105.04593.5621.14449 1.0788.39179 1.5642.38349.7526.99541 1.3645 1.74806 1.748.48533.2473 1.00204.3459 1.56414.3918.54119.0442 1.20555.0442 2.01052.0442h10.4826c.8049 0 1.4693 0 2.0105-.0442.5621-.0459 1.0788-.1445 1.5642-.3918.7526-.3835 1.3645-.9954 1.748-1.748.2473-.4854.3459-1.0021.3918-1.5642.0442-.5412.0442-1.2055.0442-2.0105v-4.4826c0-.805 0-1.4693-.0442-2.01053-.0459-.56209-.1445-1.0788-.3918-1.56413-.3835-.75265-.9954-1.36457-1.748-1.74806-.4854-.2473-1.0021-.34586-1.5642-.39179-.5412-.04421-1.2055-.0442-2.0105-.04419h-2.3904l2.7738-2.21909c.4313-.34501.5012-.97431.1562-1.40557s-.9743-.50118-1.4056-.15617l-4.3753 3.50024z" fill="#801ed7"/></svg>

<svg width="24" height="24" viewBox="0 0 24 24" fill="none" xmlns="http://www.w3.org/2000/svg">
<path d="M7.62473 2.21917C7.19347 1.87416 6.56418 1.94408 6.21917 2.37534C5.87416 2.8066 5.94408 3.4359 6.37534 3.78091L9.14921 6H6.7587C5.95373 5.99999 5.28937 5.99998 4.74818 6.04419C4.18608 6.09012 3.66937 6.18868 3.18404 6.43598C2.43139 6.81947 1.81947 7.43139 1.43598 8.18404C1.18868 8.66937 1.09012 9.18608 1.04419 9.74818C0.999978 10.2894 0.999988 10.9537 1 11.7587V16.2413C0.999988 17.0463 0.999978 17.7106 1.04419 18.2518C1.09012 18.8139 1.18868 19.3306 1.43598 19.816C1.81947 20.5686 2.43139 21.1805 3.18404 21.564C3.66937 21.8113 4.18608 21.9099 4.74818 21.9558C5.28937 22 5.95373 22 6.7587 22H17.2413C18.0462 22 18.7106 22 19.2518 21.9558C19.8139 21.9099 20.3306 21.8113 20.816 21.564C21.5686 21.1805 22.1805 20.5686 22.564 19.816C22.8113 19.3306 22.9099 18.8139 22.9558 18.2518C23 17.7106 23 17.0463 23 16.2413V11.7587C23 10.9537 23 10.2894 22.9558 9.74817C22.9099 9.18608 22.8113 8.66937 22.564 8.18404C22.1805 7.43139 21.5686 6.81947 20.816 6.43598C20.3306 6.18868 19.8139 6.09012 19.2518 6.04419C18.7106 5.99998 18.0463 5.99999 17.2413 6H14.8509L17.6247 3.78091C18.056 3.4359 18.1259 2.8066 17.7809 2.37534C17.4359 1.94408 16.8066 1.87416 16.3753 2.21917L12 5.71941L7.62473 2.21917Z" fill="#801ED7"/>
</svg>
